X:189
T:Monro's Speech. Ru2.189
%%VWML:RutherfordVol2-2249-p95-0
F:http://www.vwml.org/record/RutherfordVol2/2249/p95
Z:vmp.Ruairidh Greig 2015 www.village-music-project.org.uk
M:C|
L:1/8
Q:1/4=100
K:G
c|"tr"(B>A)BG B(dd)g|egdB A/A/A Ac|(B>AB)A B(dd)g|(b/a/g/f/) gB G/G/G G:|
f|gabg a/g/f/e/ gd|egdB A/A/A Af|gabg a/g/f/e/ gd|egdB G/G/G Gf|
gabg a/g/f/e/ gd|egdB A/A/A Af|b/a/g a/g/e g/e/d e/d/B|egdB G/G/G||
W:Foot it all four and cross over into each others
W:places .| The same back again :| Gallop down
W:and up again and cast off .|. Right Hand & Left
W:at Top :||: Hands across 4 at Bottom & turn it out
T:Go & marry Kattie. Ru2.190
B:RUTHERFORD Complete Collection of 200 Country Dances Vol.2; 1759.
Z:vmp.Ruairidh Greig 2015 www.village-music-project.org.uk
M:C|
L:1/8
Q:1/4=100
K:Ador
B|G/G/G GB d>cBg|G/G/G GG (B/c/)d A>B|G/G/G G/G/G d>cBd|egde Bg A||
c|Bd2e/f/ gded|Bd2 e/f/ gBA>c|Bd2e/f/ gded|(3cdc (3BcB gB A||
W:Cast off & Hands round 4 with the 3d. Cou .|
W:Cast up & Hands round 4 with the 2d. Cou. :|
W:Cross over 2 Cou. .|. Lead up to the Top foot it
W:and cast off :||: Foot it Corners & turn .|| Foot
W:it the other Corners & turn :|| Hands round all
W:Six :|| Right Hand and Left :|
